src/assets/img/globalping/globalping-opensource-icon.svg

<svg width="48" height="50" viewBox="0 0 48 50" fill="none" xmlns="http://www.w3.org/2000/svg">
<path d="M22 2.1547C23.2376 1.44017 24.7624 1.44017 26 2.1547L42.7846 11.8453C44.0222 12.5598 44.7846 13.8803 44.7846 15.3094V34.6906C44.7846 36.1197 44.0222 37.4402 42.7846 38.1547L26 47.8453C24.7624 48.5598 23.2376 48.5598 22 47.8453L5.21539 38.1547C3.97779 37.4402 3.21539 36.1197 3.21539 34.6906V15.3094C3.21539 13.8803 3.97779 12.5598 5.21539 11.8453L22 2.1547Z" fill="#17D4A7" stroke="#69E7C8" stroke-width="2" stroke-linecap="round" stroke-linejoin="round"/>
<path d="M22 8.1547C23.2376 7.44017 24.7624 7.44017 26 8.1547L37.5885 14.8453C38.8261 15.5598 39.5885 16.8803 39.5885 18.3094V31.6906C39.5885 33.1197 38.8261 34.4402 37.5885 35.1547L26 41.8453C24.7624 42.5598 23.2376 42.5598 22 41.8453L10.4115 35.1547C9.17394 34.4402 8.41154 33.1197 8.41154 31.6906V18.3094C8.41154 16.8803 9.17394 15.5598 10.4115 14.8453L22 8.1547Z" fill="#17D4A7"/>
<path d="M22 8.1547C23.2376 7.44017 24.7624 7.44017 26 8.1547L37.5885 14.8453C38.8261 15.5598 39.5885 16.8803 39.5885 18.3094V31.6906C39.5885 33.1197 38.8261 34.4402 37.5885 35.1547L26 41.8453C24.7624 42.5598 23.2376 42.5598 22 41.8453L10.4115 35.1547C9.17394 34.4402 8.41154 33.1197 8.41154 31.6906V18.3094C8.41154 16.8803 9.17394 15.5598 10.4115 14.8453L22 8.1547Z" fill="url(#paint0_radial_3965_8881)"/>
<path d="M22 8.1547C23.2376 7.44017 24.7624 7.44017 26 8.1547L37.5885 14.8453C38.8261 15.5598 39.5885 16.8803 39.5885 18.3094V31.6906C39.5885 33.1197 38.8261 34.4402 37.5885 35.1547L26 41.8453C24.7624 42.5598 23.2376 42.5598 22 41.8453L10.4115 35.1547C9.17394 34.4402 8.41154 33.1197 8.41154 31.6906V18.3094C8.41154 16.8803 9.17394 15.5598 10.4115 14.8453L22 8.1547Z" stroke="#69E7C8" stroke-width="2" stroke-linecap="round" stroke-linejoin="round"/>
<path d="M23.9958 13V13H24.0042V13C27.0409 12.9978 29.9821 14.0573 32.3167 15.994C34.6531 17.9323 36.234 20.6263 36.7848 23.6069C37.3355 26.5875 36.8214 29.6666 35.3317 32.3083C34.0055 34.6599 31.9807 36.5326 29.5483 37.6758L26.9486 30.8915C27.8071 30.381 28.5235 29.6532 29.0204 28.7741C29.6838 27.6004 29.9139 26.2316 29.6704 24.9058C29.4269 23.5801 28.7254 22.382 27.6885 21.5197C26.6516 20.6575 25.3449 20.1855 23.9958 20.1855C22.6467 20.1855 21.34 20.6575 20.3031 21.5197C19.2662 22.382 18.5646 23.5801 18.3212 24.9058C18.0777 26.2316 18.3078 27.6004 18.9712 28.7741C19.4682 29.6534 20.1848 30.3813 21.0436 30.8919L18.4509 37.6754C16.0188 36.5322 13.9944 34.6597 12.6683 32.3083C11.1786 29.6666 10.6645 26.5875 11.2152 23.6069C11.766 20.6263 13.3469 17.9323 15.6833 15.994C18.0179 14.0573 20.9591 12.9978 23.9958 13ZM23.9958 13C23.9962 13 23.9966 13 23.9971 13C23.998 13 23.999 13 24 13C24.001 13 24.002 13 24.0029 13" fill="white" stroke="#17233A" stroke-width="2"/>
<defs>
<radialGradient id="paint0_radial_3965_8881" cx="0" cy="0" r="1" gradientUnits="userSpaceOnUse" gradientTransform="translate(13 12) rotate(59.3814) scale(28.4693)">
<stop stop-color="white" stop-opacity="0.89"/>
<stop offset="1" stop-color="white" stop-opacity="0"/>
</radialGradient>
</defs>
</svg>

<svg xmlns="http://www.w3.org/2000/svg" width="48" height="50" fill="none">
  <path fill="#17D4A7" stroke="#69E7C8" stroke-linecap="round" stroke-linejoin="round" stroke-width="2" d="M22 2.155a4 4 0 0 1 4 0l16.785 9.69a4 4 0 0 1 2 3.464v19.382a4 4 0 0 1-2 3.464L26 47.845a4 4 0 0 1-4 0l-16.785-9.69a4 4 0 0 1-2-3.464V15.309a4 4 0 0 1 2-3.464L22 2.155Z"/>
  <path fill="#17D4A7" d="M22 8.155a4 4 0 0 1 4 0l11.589 6.69a4 4 0 0 1 2 3.464v13.382a4 4 0 0 1-2 3.464L26 41.845a4 4 0 0 1-4 0l-11.588-6.69a4 4 0 0 1-2-3.464V18.309a4 4 0 0 1 2-3.464L22 8.155Z"/>
  <path fill="url(#a)" d="M22 8.155a4 4 0 0 1 4 0l11.589 6.69a4 4 0 0 1 2 3.464v13.382a4 4 0 0 1-2 3.464L26 41.845a4 4 0 0 1-4 0l-11.588-6.69a4 4 0 0 1-2-3.464V18.309a4 4 0 0 1 2-3.464L22 8.155Z"/>
  <path stroke="#69E7C8" stroke-linecap="round" stroke-linejoin="round" stroke-width="2" d="M22 8.155a4 4 0 0 1 4 0l11.589 6.69a4 4 0 0 1 2 3.464v13.382a4 4 0 0 1-2 3.464L26 41.845a4 4 0 0 1-4 0l-11.588-6.69a4 4 0 0 1-2-3.464V18.309a4 4 0 0 1 2-3.464L22 8.155Z"/>
  <path fill="#fff" stroke="#17233A" stroke-width="2" d="M23.996 13h.008a13.005 13.005 0 0 1 8.313 2.994 12.93 12.93 0 0 1 3.015 16.314 12.975 12.975 0 0 1-5.784 5.368l-2.6-6.785a5.75 5.75 0 0 0 .74-9.372 5.776 5.776 0 0 0-7.385 0 5.756 5.756 0 0 0-1.332 7.255 5.764 5.764 0 0 0 2.073 2.118l-2.593 6.783a12.974 12.974 0 0 1-5.783-5.367 12.93 12.93 0 0 1 3.015-16.314A13.005 13.005 0 0 1 23.996 13Zm0 0h.007"/>
  <defs>
    <radialGradient id="a" cx="0" cy="0" r="1" gradientTransform="rotate(59.381 -4.023 17.4) scale(28.4693)" gradientUnits="userSpaceOnUse">
      <stop stop-color="#fff" stop-opacity=".89"/>
      <stop offset="1" stop-color="#fff" stop-opacity="0"/>
    </radialGradient>
  </defs>
</svg>
